X:0037
T:Quick Step the Troopers.
M:6/8
L:1/8
Q:3/8=88
I: :: ::
N:last note printed as D2
Z:Jack Campin * www.campin.me.uk * 2009
K:D
ded dcB|ABc d3 |e2g f2a|ecA A3 |
ded dcB|ABc d2F|G2A B2d|AFD D3:|
F2G AFD|d2f ecA|g2f e2d|ecA A2G|
FGA Bcd|egf edc|dcB A2G|FDD D3:|

